packages/ui-icons/svg/Line/permissions.svg

<svg viewBox="0 0 1920 1920" version="1.1" xmlns="http://www.w3.org/2000/svg">
    <path d="M1707,1760 C1707,1789.44 1683.10667,1813.33333 1653.66667,1813.33333 L1333.66667,1813.33333 C1304.22667,1813.33333 1280.33333,1789.44 1280.33333,1760 L1280.33333,1493.33333 L1707,1493.33333 L1707,1760 Z M213.666667,1484.05333 L213.666667,1337.6 C213.666667,1250.98667 270.093333,1175.46667 354.146667,1149.65333 C536.973333,1093.65333 727.266667,1067.41333 916.493333,1066.66667 C1063.37333,1067.41333 1209.29333,1086.08 1352.76,1121.06667 C1308.70667,1160.10667 1280.33333,1216.53333 1280.33333,1280 L1280.33333,1386.66667 L1173.66667,1386.66667 L1173.66667,1674.98667 C1086.2,1695.25333 996.706667,1706.66667 907,1706.66667 C762.573333,1706.66667 483.533333,1677.33333 213.666667,1484.05333 L213.666667,1484.05333 Z M1387,1280 C1387,1221.22667 1434.89333,1173.33333 1493.66667,1173.33333 C1552.44,1173.33333 1600.33333,1221.22667 1600.33333,1280 L1600.33333,1386.66667 L1387,1386.66667 L1387,1280 Z M899.533333,106.666667 L914.466667,106.666667 C1088.54667,106.666667 1236.81333,229.226667 1272.12,396.906667 C1241.93333,414.4 1210.68,426.666667 1156.6,426.666667 C1087.05333,426.666667 1055.48,406.72 1015.37333,381.44 C969.72,352.64 918.093333,320 818.466667,320 C718.093333,320 666.146667,352.746667 620.28,381.653333 C593.506667,398.613333 570.466667,413.12 537.293333,420.8 C562.573333,243.52 715.426667,106.666667 899.533333,106.666667 L899.533333,106.666667 Z M1707,1386.66667 L1707,1280 C1707,1218.34667 1680.33333,1163.2 1638.41333,1124.26667 L1638.52,1124.16 C1600.65333,1080.42667 1515.42667,1054.4 1491.64,1047.89333 C1391.26667,1017.06667 1288.76,994.88 1185.18667,980.266667 C1306.89333,894.72 1387,753.813333 1387,594.133333 L1280.33333,594.133333 C1280.33333,795.84 1116.17333,960 914.466667,960 L899.533333,960 C697.826667,960 533.666667,795.84 533.666667,594.133333 L533.666667,529.813333 C599.906667,520.64 640.546667,495.04 677.24,471.893333 C717.346667,446.613333 749.026667,426.666667 818.466667,426.666667 C887.16,426.666667 918.626667,446.506667 958.413333,471.68 C1004.28,500.586667 1056.22667,533.333333 1156.6,533.333333 C1256.97333,533.333333 1309.13333,500.266667 1359.05333,468.586667 L1387.32,450.56 L1383.48,417.28 C1355.42667,179.413333 1153.72,0 914.466667,0 L899.533333,0 C638.946667,0 427,211.946667 427,480 L427,594.133333 C427,753.92 507.106667,894.826667 628.92,980.373333 C525.56,994.88 423.266667,1016.96 322.786667,1047.68 C193.72,1087.36 107,1203.84 107,1337.6 L107,1537.81333 L128.333333,1553.70667 C429.453333,1779.62667 745.4,1813.33333 907,1813.33333 C997.453333,1813.33333 1087.48,1801.81333 1175.90667,1782.82667 C1187.21333,1860.16 1253.24,1920 1333.66667,1920 L1653.66667,1920 C1741.88,1920 1813.66667,1848.21333 1813.66667,1760 L1813.66667,1386.66667 L1707,1386.66667 Z" stroke="none" stroke-width="1" fill-rule="evenodd"/>
</svg>

<svg viewBox="0 0 1920 1920" version="1.1" xmlns="http://www.w3.org/2000/svg">
    <path d="M1707 1760c0 29.44-23.893 53.333-53.333 53.333h-320c-29.44 0-53.334-23.893-53.334-53.333v-266.667H1707V1760zM213.667 1484.053V1337.6c0-86.613 56.426-162.133 140.48-187.947 182.826-56 373.12-82.24 562.346-82.986 146.88.746 292.8 19.413 436.267 54.4-44.053 39.04-72.427 95.466-72.427 158.933v106.667h-106.666v288.32c-87.467 20.266-176.96 31.68-266.667 31.68-144.427 0-423.467-29.334-693.333-222.614zM1387 1280c0-58.773 47.893-106.667 106.667-106.667 58.773 0 106.666 47.894 106.666 106.667v106.667H1387V1280zM899.533 106.667h14.934c174.08 0 322.346 122.56 357.653 290.24-30.187 17.493-61.44 29.76-115.52 29.76-69.547 0-101.12-19.947-141.227-45.227-45.653-28.8-97.28-61.44-196.906-61.44-100.374 0-152.32 32.747-198.187 61.653-26.773 16.96-49.813 31.467-82.987 39.147 25.28-177.28 178.134-314.133 362.24-314.133zm807.467 1280V1280c0-61.653-26.667-116.8-68.587-155.733l.107-.107c-37.867-43.733-123.093-69.76-146.88-76.267-100.373-30.826-202.88-53.013-306.453-67.626C1306.893 894.72 1387 753.813 1387 594.133h-106.667c0 201.707-164.16 365.867-365.866 365.867h-14.934c-201.706 0-365.866-164.16-365.866-365.867v-64.32c66.24-9.173 106.88-34.773 143.573-57.92 40.107-25.28 71.787-45.226 141.227-45.226 68.693 0 100.16 19.84 139.946 45.013 45.867 28.907 97.814 61.653 198.187 61.653 100.373 0 152.533-33.066 202.453-64.746l28.267-18.027-3.84-33.28C1355.427 179.413 1153.72 0 914.467 0h-14.934C638.947 0 427 211.947 427 480v114.133c0 159.787 80.107 300.694 201.92 386.24-103.36 14.507-205.653 36.587-306.133 67.307C193.72 1087.36 107 1203.84 107 1337.6v200.213l21.333 15.894C429.453 1779.627 745.4 1813.333 907 1813.333c90.453 0 180.48-11.52 268.907-30.506 11.306 77.333 77.333 137.173 157.76 137.173h320c88.213 0 160-71.787 160-160v-373.333H1707z" stroke="none" stroke-width="1" fill-rule="evenodd"/>
</svg>
